X:1
T:Title
L:1/8
M:6/8
K:Eb
V:1 treble nm="Grand Piano"
V:1
 z2[Q:1/4=140] G G2 G | G3 C2 D | E3 G3 | C6- | C2 G G2 A | G3 C2 E | D6- | D6- | D2 F F2 =E | %9
 F2 =E F2 E | F6 | E6- | E2 G G2 G | _G3 E2 G | G6- | G6- | G2 A A2 A | A3 F2 A | G6 | G6- | %20
 G2 G G2 G | _G3 =G3 | =B6- | B6 | B2 B B2 B | A3 A2 A | G3 c3 | G6- | G2 G G2 A | G3 E2 F | G6- | %31
 G6 | z2 c c2 c | E3 F3 | G6- | G6- | G2 c c2 c | B3 A3 | F6- | F6- | F2 F G2 A | G3 F3 | A3- ABA | %43
 G6- | G2 G G2 G | _G3 E2 G | G6- | G6- | G2 c c2 c | E3 F3 | G6- | G6- | G2 G G2 G | G3 B3 | A6- | %55
 A6- | A2 F G2 A | A3 A3 | A3- ABA | G6- | G2 G G2 G | _G3 E2 G | G3- G2 G | A3 G3 | _G3 =G3 | %65
 c6- | c6- | c2 z z3 |] %68

